!!!ONB: MCCC : IJH0455_04 : Extracted Monophonic Melody
!!!COM: Haydn, Joseph
!!!OPR: String Quartet in F major
!!!OMV: 4
!!!SCT: Hob.III:82 ; Op.77 No.2
!!!ODT: 1799///
**kern
*thru
*k[b-]
*F:
*clefF
*M3/4
2f
8r
16cc
16b-
=1
8a
8g
8f
8e
8f
8g
=2
8a
8f
8b-
4r
16dd
16cc
=3
8b-
8a
8g
8f#
8g
8a
=4
8b-
8g
8cc
4r
16gg
16ff
=5
8ee
8dd
8cc
8b
8cc
8b
=6
8cc
8cc#
4.dd
16cc
16b-
=7
8a
16aa
16gg
4ff
8ff
16ee
16dd
=8
4dd
8cc
16aa
16gg
8ff
16ee
16dd
=9
4dd
8cc
16aa
16gg
16ff
16ee
16dd
16cc
=10
8cc
8b
8b-
8r
8a
8r
=11
8g
8r
8b-
8r
8e
8r
=12
4.f
8f
8g
8a
=13
4.b-
16dd
16cc
16b-
16a
16g
16f
=14
4.e
16gg
16ee
16gg
16ee
16gg
16ee
=15
8.ccc
16aa
8ff
8f
8g
8a
=16
4.b-
16dd
16cc
16b-
16a
16g
16f
=17
4.e
16gg
16ee
16gg
16ee
16gg
16ee
=18
8.ccc
16aa
8ff
16gg
16ee
16gg
16ee
16gg
16ee
=19
8.ccc
16aa
8ff
16aa
16a
16aa
16a
16aa
16a
=20
8.aa
16ff
8dd
16ff
16dd
8a
16dd
16a
=21
8f
16a
16f
8d
16f
16d
8A
8d
=22
4c
4B
4g
=23
4f
4e
4cc[
=24
4cc]
4b
4dd[
=25
4dd]
4cc
4ff[
=26
4ff]
4ee
4aa[
=27
4aa]
4gg
4ff#
=28
4ff#
8gg
16ff#
16gg
8aa
16aa
16ff#
=29
8gg
16gg
16ff#
8gg
16ff#
16gg
8aa
16aa
16ff#
=30
8gg
16gg
16ff#
8gg
16aa
16gg
8ff
16gg
16ff
=31
8ee
8dd
8cc
8b
8cc
16gg
16ff
=32
8ee
8dd
8cc
8b
8cc
16aa
16gg
=33
8ff
8ee
8dd
8cc#
8dd
8ee
=34
8ff
8ff#
8gg
8aa
8bb-
8bb
=35
16ccc
16bb
16ccc
16eee
16ccc
16bb
16ccc
16gg
16ccc
16bb
16ccc
16eee
=36
16ddd
16ccc#
16ddd
16fff
16ddd
16eee
16ccc
16ddd
16bb
16ccc
16ddd
16bb
=37
16ccc
16bb
16ccc
16eee
16ccc
16bb
16ccc
16gg
16ccc
16bb
16ccc
16eee
=38
16ddd
16ccc#
16ddd
16fff
16ddd
16eee
16ccc
16ddd
16bb
16ccc
16ddd
16bb
=39
8ccc
4gg
4ee
16gg
16ee
=40
8ff
16ff
16ee
8dd
16dd
16cc
8b
8gg
=41
8gg
4ccc
4eee
8ggg
=42
16ggg
16fff
16fff
16eee
16eee
16ddd
16fff
16ddd
8bb
8bb
=43
16ccc
16eee
16ggg
16eee
4.gg
16aa
16gg
=44
8ff
16ff
16ee
8dd
16dd
16cc
8b
8dd
=45
16cc
16dd
16ee
16ff
8gg
4gg
16ff#
16aa
=46
8gg
16ff#
16aa
8gg
16ff#
16aa
8gg
8ccc
=47
8dd
4dd
16cc#
16ee
8dd
16cc#
16ee
=48
8dd
16ff
16gg
16aa
16gg#
16aa
16gg#
16aa
16ff
16ee
16dd
=49
16cc
16gg
16ff
16ee
16dd
16cc
16b
16a
16g
16f
16e
16d
=50
16c
16G
16c
16e
16g
16f#
16a
16g
16f
16e
16d
16c
=51
16B
16d
16g
16b
16dd
16cc#
16ee
16dd
16cc
16b
16a
16g
=52
16cc
16b
16cc
16ee
16gg
16ff#
16aa
16gg
16ff
16ee
16dd
16cc
=53
16b
16a
16aa
16ff
8ee
16gg
16ee
8ff
16dd
16b
=54
8cc
16b
16dd
8cc
16dd
16ff
8ee
16b
16dd
=55
8cc
16b
16dd
8cc
16dd
16ff
8ee
16b
16dd
=56
8cc
16ee
16dd
8cc
16gg
16ff
8ee
16bb-
16aa
=57
8gg
16gg
16ff
8ee
16ee
16dd
8cc
16cc
16b-
=58
8a
8g
8f
8e
8f
8g
=59
8a
8f
8b-
4r
16dd
16cc
=60
8b-
8a
8g
8f#
8g
8a
=61
8b-
8g
8cc
4r
16gg
16ff
=62
8ee
8dd
8cc
8b
8cc
8b
=63
8cc
8cc#
4.dd
16cc
16b-
=64
8gg
16gg
16ff
8ee
16ee
16dd
8cc#
16aa
16gg
=65
8ff
8ee
8dd
8cc#
8dd
8ee
=66
4ff
8r
16a
16g
8f
8cc#
=67
8dd
16ddd
16ccc
8bb-
8aa
8gg
8ff#
=68
8gg
8aa
8bb-
4r
8ff#
=69
8gg
16gg
16ff
8ee
16ee
16dd
8cc
8ee
=70
8ff
8gg
8aa
8bb-
8aa
8dd
=71
8ee
8ff
8gg
8aa
8gg
8cc#
=72
8dd
8ee
16ff
16gg
16ee
16ff
16dd
16ff
16ee
16dd
=73
8cc#
16aa
16cc#
8dd
16aa
16dd
8ee
16aa
16ee
=74
8ff
16aa
16ff#
8gg
16bb-
16gg
8aa
16ddd
16aa
=75
8bb-
16ddd
16bb
16ccc
16bb
16ccc
16bb
16ccc
16ee
16gg
16bb-
=76
16aa
16ff
16ee
16ff
16cc
16a
16cc
16a
16f
16cc
16ff
16aa
=77
8bb-
4gg
4ee
8cc
=78
16aa
16a
16cc
16ff
16aa
16bb-
16gg
16aa
16ff#
16aa
16ff#
16aa
=79
16bb-
16gg
16ff#
16gg
16dd
16b-
16dd
16b-
16g
16b-
16a
16g
=80
16f#
16a
16cc
16dd
16ee-
16cc
16a
16ff#
16ccc
16aa
16ff#
16aa
=81
16bb-
16aa
16aa
16gg
16gg
16ff
16ff
16ee-
8ee-
16bb-
16ddd
=82
16ddd
16ccc
16ccc
16bb-
16bb-
16aa
16aa
16gg
16gg
16ff
16gg
16ee-
=83
8dd
8cc
8b-
8a
8b-
16ff
16ee-
=84
8dd
8cc
8b-
8a
8b-
16gg
16ff
=85
8ee-
8dd
8cc
8b
8cc
8dd
=86
8ee-
8ee
8ff
8gg
8aa-
8aa
=87
16bb-
16aa
16bb-
16ddd
16bb-
16aa
16bb-
16ff
16bb-
16aa
16bb-
16ddd
=88
16ccc
16bb
16ccc
16eee-
16ccc
16ddd
16bb-
16ccc
16aa
16bb-
16ccc
16ee-
=89
4dd
4ff
4bb-[
=90
4bb-]
8aa
8gg
8ff
8ee-
=91
16dd
16cc#
16dd
16ff
16dd
16cc#
16dd
16ff
16cc
16b
16cc
16ff
=92
16b
16cc
16dd
16ee-
16ff
16ee-
16dd
16cc
16b
16a-
16g
16f
=93
4e-
4r
4e-
=94
4a-
4g
4f
=95
4e-
2r
=96
4r
4r
4dd
=97
16ee-
16dd
16ee-
16gg
16ee-
16dd
16ee-
16gg
16dd
16cc#
16dd
16gg
=98
16cc#
16dd
16ee
16ff
16gg
16ff
16ee
16dd
16cc#
16b-
16a
16g
=99
8f
4ff
4aa
8ddd
=100
16ddd
16ccc#
16ccc#
16bb-
16bb-
16aa
16aa
16gg
16gg
16ff
16ff
16ee
=101
16dd
16ee
16ff
16gg
8aa
4aa
16gg#
16bb
=102
8aa
16gg#
16bb
8aa
16gg#
16bb
8aa
8dd
=103
8ee
4ee
16gg#
16aa
8ee
8aa
=104
8ee
4ee
8aa
16gg
16ff
16gg
16ee
=105
16dd
16ee
16ff
16gg
8aa
4aa
16gg#
16bb
=106
8aa
16gg#
16bb
8aa
16gg#
16bb
8aa
8dd
=107
8ee
4ee
16gg#
16aa
8ee
8aa
=108
8ee
4ee
8aa
16gg
16ff
16gg
16ee
=109
8ff
16ff
16ee
8dd
16dd
16cc#
8dd
16dd
16ee
=110
8ff
16ff
16ee
8dd
16dd
16cc#
8dd
16dd
16ee
=111
8ff
16ff
16ee
8dd
16dd
16cc#
8dd
16dd
16ee
=112
8ff
16ff
16ee
8ff
16ff
16ee
8ff
16aa-
16gg
=113
8ff
16ff
16ee
8ff
16ff
16ee
8ff
16aa-
16gg
=114
8ff
16ff
16ee
8ff
16ff
16ee
8ff
16aa-
16ff
=115
16gg-
16ff
16gg-
16ff
16gg-
16ff
16gg-
16ff
16gg-
16bb-
16aa-
16gg-
=116
8ff
16aa-
16gg-
8ff
16aa-
16gg-
8ff
16ff
16gg
=117
8aa
4aa
4aa
16ff
16aa
=118
8bb-
4bb-
16bb-
16aa
8bb-
8bb
=119
8ccc
4ccc
4ccc
8ccc[
=120
8ccc]
4ccc
4ccc
8ccc
=121
16cc
16b
16dd
16cc
16ee
16dd
16ff
16ee
16gg
16ff
16aa
16gg
=122
16bb-
16aa
16gg
16aa
16gg
16ff
16ee
16ff
16ee
16dd
16cc
16b-
=123
8a
8g
8f
8e
8f
8g
=124
8a
8f
8b-
4r
16dd
16cc
=125
8b-
8a
8g
8f#
8g
8a
=126
8b-
8g
8cc
4r
16gg
16ff
=127
8ee
8dd
8cc
8b
8cc
8b
=128
8cc
8cc#
4.dd
16cc
16b-
=129
8a
16aa
16gg
4ff
8ff
16ee
16dd
=130
4dd
8cc
16aa
16gg
8ff
16ee
16dd
=131
4dd
8cc
16aa
16gg
16ff
16ee
16dd
16cc
=132
8cc
8b
8b-
8r
8a
8r
=133
8g
8r
8b-
8r
8e
8r
=134
4.f
8f
8g
8a
=135
4.b-
16dd
16cc
16b-
16a
16g
16f
=136
4.e
16gg
16ee
16gg
16ee
16gg
16ee
=137
8.ccc
16aa
8ff
8f
8g
8a
=138
4.b-
16dd
16cc
16b-
16a
16g
16f
=139
4.e
16gg
16ee
16gg
16ee
16gg
16ee
=140
8.ccc
16aa
8ff
16gg
16ee
16gg
16ee
16gg
16ee
=141
8.ccc
16aa
8ff
16aa
16a
16aa
16a
16aa
16a
=142
8.aa
16ff
8dd
8ff#
8ff#
8ff#
=143
8.gg
16bb-
8ddd
8ee
8ee
8ee
=144
8.ff
16aa
8ccc
16ccc
16aa
8ff
16aa
16ff
=145
8dd
16ff
16dd
8b-
16dd
16b-
8g
8f
=146
4f
4e
8.cc
16cc
=147
4cc
4b
4ff[
=148
4ff]
4ee
4gg[
=149
4gg]
4ff
4bb-[
=150
4bb-]
4aa
4ddd[
=151
4ddd]
4ccc
4bb[
=152
4bb]
8ccc
16bb
16ccc
8ddd
16ddd
16bb
=153
8ccc
16ccc
16bb
8ccc
16bb
16ccc
8ddd
16ddd
16bb
=154
8ccc
16ccc
16bb
8ccc
16ddd
16ccc
8bb-
16ccc
16bb-
=155
8aa
8gg
8ff
8ee
8ff
16ccc
16bb-
=156
8aa
8gg
8ff
8ee
8ff
16fff
16eee
=157
8ddd
16ddd
16ccc
8bb-
16bb-
16aa
8gg
16gg
16ff
=158
4ee
2r
=159
16ff
16ee
16ff
16aa
16ff
16ee
16ff
16cc
16ff
16ee
16ff
16aa
=160
16gg
16ff#
16gg
16bb-
16gg
16aa
16ff
16gg
16ee
16ff
16gg
16ee
=161
4ff
4r
4ff[
=162
4ff]
4ee
4gg[
=163
4gg]
4ff
4aa[
=164
4aa]
4gg
4bb-[
=165
16bb-]
16aa
16gg
16ff
16ee
16dd
16cc
16b-
16a
16ff
16cc
16a
=166
16g
16dd
16b-
16g
16f
16cc
16a
16f
16e
16b-
16g
16e
=167
16f
16e
16d
16c
4B
4r
=168
16bb-
16gg
16ee
16cc
4b-
8r
16cc
16b-
=169
8a
8g
8f
8g
8a
16cc
16b-
=170
8a
8g
8f
8g
8a
16ff
16ee
=171
8dd
16bb-
16aa
8gg
16ddd
16ccc
8bb-
8ggg
=172
4fff
4eee
8r
16ggg
16fff
=173
16eee
16fff
16ggg
16aaa
4bbb-
8r
16aaa
16ggg
=174
16fff
16ggg
16aaa
16bbb-
4cccc
8r
16bbb-
16aaa
=175
16ggg
16aaa
16bbb-
16cccc
4ddd
8r
16B-
16A
=176
16G
16A
16B-
16c
16d
16f#
16g
16f#
16g
16a
16b-
16cc
=177
8dd
8r
8b-
8r
8ee
8r
=178
8ff
4cc
4cc
16cc
16a
=179
8b-
16b-
16a
8g
16g
16f
8e
8cc
=180
8cc
4ff
4aa
8ccc
=181
16ccc
16bb-
16bb-
16aa
16aa
16gg
16gg
16ff
16ff
16ee
16gg
16ee
=182
8ff
4aa
4ccc
16fff
16ccc
=183
8bb-
16bb-
16aa
8gg
16gg
16ff
8ee
8gg
=184
16ff
16gg
16aa
16bb-
8ccc
4ccc
16bb
16ddd
=185
8ccc
16bb
16ddd
8ccc
16bb
16ddd
8ccc
8fff
=186
8gg
4gg
16ff#
16aa
8gg
16ff#
16aa
=187
16gg
16ff#
16aa
16gg
16bb-
16aa
16ccc
16bb-
8ddd
8b-
=188
16a
16ccc
16aa
16ff
8cc
8a
8b-
8e
=189
16f
16e
16f
16a
16cc
16b
16dd
16cc
16b-
16a
16g
16f
=190
16e
16g
16cc
16ee
16gg
16ff#
16aa
16gg
16ff
16ee
16dd
16cc
=191
16ff
16cc
16ff
16aa
16ccc
16bb
16ddd
16ccc
16bb-
16aa
16gg
16ff
=192
16ee
16dd
16ddd
16bb-
8aa
16ccc
16aa
8bb-
16gg
16ee
=193
8ff
16gg
16bb-
8aa
16ee
16gg
8ff
16gg
16bb-
=194
8aa
16ee
16gg
8ff
16gg
16bb-
8aa
16ee
16gg
=195
4ff
8r
16gg
16bb-
8aa
16ee
16gg
=196
4ff
8r
16gg
16bb-
8aa
16ee
16gg
=197
4ff
4r
8g
8b-
=198
4a
4r
8e
8g
=199
4f
8r
8ee
8ff
8gg
=200
8aa
8r
8cc
8r
8a
8r
=201
4f
2r
==
*-
